X:74
T: ICH WEISS EIN FEIN BRAUNS MAEGDELEIN
N: E1090
O: Europa, Mitteleuropa, Deutschland
R: Wunsch - Lied, Luegen - Maerchen
M: 4/4
L: 1/8
K: C
C2 | C2C2C2C2 | G2G2G2
G2 | F2G2A2G2 | G2F2E4 | z2
E2F2F2 | G2E2F2E2 | G2
E2F2E2 | G4F2E2- | E2DCD4 | C8 | z6

@@@ Tune index: 4758
